X: 1040
T: Paddy in London
R:double jig
N:"collected by F. O'Neill"
B:O'Neill's 1040
Z:Transcribed by henrik.norbeck@mailbox.swipnet.se
M:6/8
L:1/8
K:D
(G|F)DF ABc|ded def|AGF G2 A|BGE E2 G|
FDF ABc|ded def|AGF BAG|FDD D2:|
(g|f)df agf|gfe dBG|AGF G2 A|BGE E2 [gG]|
[1 fdf agf|gfe dBG|AGA BAG|FDD D2:|
[2 FDF ABc|ded def|AGF BAG|FDD D2||
(g/f)|eAA Agf|edc d2 B|AGF G2 A|BGE E2 (f/g/)|
agf gfe|ded def|AGF BAG|FDD D2:|


